src/pos-icons/vector-difference-ba.svg

<svg height="24" viewBox="0 0 24 24" width="24" xmlns="http://www.w3.org/2000/svg"><path d="m20 22c1.11 0 2-.89 2-2v-2h-2v2h-2v2zm-4 0v-2h-3v2zm-5 0v-2h-2v-2h-2v2c0 1.11.89 2 2 2zm11-6v-3h-2v3zm-13 0s0-4.67 0-7h7s0-4 0-6c0-1.11-.89-2-2-2h-11c-1.11 0-2 .89-2 2v11c0 1.11.89 2 2 2zm-2-2h-4v-11h11v4h-5c-1.11 0-2 .89-2 2zm15-3v-2c0-1.11-.89-2-2-2h-2v2h2v2z"/></svg>

<?xml version="1.0" encoding="UTF-8"?><!DOCTYPE svg PUBLIC "-//W3C//DTD SVG 1.1//EN" "http://www.w3.org/Graphics/SVG/1.1/DTD/svg11.dtd"><svg xmlns="http://www.w3.org/2000/svg" xmlns:xlink="http://www.w3.org/1999/xlink" version="1.1" id="mdi-vector-difference-ba" width="24" height="24" viewBox="0 0 24 24"><path d="M20,22C21.11,22 22,21.11 22,20V18H20V20H18V22H20M16,22V20H13V22H16M11,22V20H9V18H7V20C7,21.11 7.89,22 9,22H11M22,16V13H20V16H22M9,16C9,16 9,11.33 9,9C11.33,9 16,9 16,9C16,9 16,5 16,3C16,1.89 15.11,1 14,1H3C1.89,1 1,1.89 1,3V14C1,15.11 1.89,16 3,16C5,16 9,16 9,16M7,14H3V3H14V7H9C7.89,7 7,7.89 7,9V14M22,11V9C22,7.89 21.11,7 20,7H18V9H20V11H22Z" /></svg>
